X:1
T:The Hill Of Sorcery
T:The Hill Of Sorcery
T:The Hobbit An Unexpected Journey
T:Howard Shore
T:Jan Miłowski
C:Howard Shore
Z:Jan Miłowski
%%score { ( 1 4 5 ) | ( 2 3 ) }
L:1/8
Q:1/4=60
M:4/4
K:D
V:1 treble nm="Piano" snm="Pno."
V:4 treble 
V:5 treble 
V:2 bass 
V:3 bass 
V:1
"^Warmly"!mf! z4 c4 | (c/4B/4c/c- c2)!>(! d4!>)! | [F,B,D]4 [F,B,D]4 | [G,B,D]4 [A,CE]4 | %4
 F4 F A2 (F/E/) | (D3 F) (E3 D/E/) | F4 B4- |!<(! B8!<)! ||[K:Eb][M:6/8]!f!!<(! z =EF- F3!<)! | %9
 F6- | F6 |!<(! A3- A- [A=B]2-!<)! | [AB]2- [ABe]- [ABe]3- |!<(! [ABe]6!<)! || %14
[K:Bb][M:2/4][Q:1/4=70]"^Spirito"!f! (6:4:6A,/A,/A,/A,/A,/A,/ (6:4:6A,/A,/A,/A,/A,/A,/ | %15
 (6:4:6A,/A,/A,/A,/A,/A,/ (6:4:6A,/C/E/C/E/C/ | (6:4:6A,/A,/A,/A,/A,/A,/ (6:4:6A,/A,/A,/A,/A,/A,/ | %17
 (6:4:6A,/A,/A,/A,/A,/A,/ (6:4:6A,/A,/A,/A,/A,/A,/ | %18
 (6:4:6A,/A,/A,/A,/A,/A,/ (6:4:6A,/A,/A,/A,/A,/A,/ | %19
 (6:4:6A,/A,/A,/A,/A,/A,/ (6:4:6A,/A,/A,/A,/A,/A,/ |[M:12/8] z12 | z12 | z12 | z12 | %24
[M:4/4]!mp!"^Moderato"[Q:1/4=92] z8 | z8 | z8 | z8 | %28
!f! z2 (3:2:6!>!G/G/G/G/G/G/ (3:2:6!>!G/G/G/G/G/G/ (3:2:6!>!G/G/G/G/G/G/ | %29
[M:3/4] z2 !tenuto!.G2 z2 | (3:2:6!>!_B/B/B/B/B/B/ (3:2:6!>!B/B/B/B/B/B/ (3:2:6!>!B/B/B/B/B/B/ | %31
 (3:2:6!>!B/B/B/B/B/B/ !>!B z z2 |[M:4/4]"^subito"!mp! _d'8- | d'8- |[M:2/4] d'4 | %35
[M:4/4]!mf! !tenuto!.[^Gc]2 z2 z2 !tenuto!.[^Gc]2 | !tenuto!.[Ac]2 z2!<(! =B4!<)! | %37
!mf! !tenuto!.[^Gc]2 z2 z2 !tenuto!.[^Gc]2 | !tenuto!.[^G^c]2 z2 z4 || %39
[K:Eb][M:6/4]"^Mysterioso"[Q:1/4=112] z12 | z12 | z12 | z12 | z12 | z12 |!p! z2 =e'8- e'2 | %46
 _e'12- | e'12- | e'12- | e'12- | e'12- | e'12- |"^accel." e'12 || %53
[K:E][K:bass]"^Faster"[Q:1/4=126]!f! ([C,,C,]2 [A,,,A,,]2 [B,,,B,,]2 [G,,,G,,]6-) | [G,,,G,,]12- | %55
 [G,,,G,,]12 | ([C,,C,]2 [A,,,A,,]2 [B,,,B,,]2 [G,,,G,,]6-) | [G,,,G,,]12- | [G,,,G,,]12 | %59
 ([C,,C,]2 [A,,,A,,]2 [^B,,,^B,,]2 [G,,,G,,]2 [^^F,,,^^F,,]4-) |"^accel." [F,,,F,,]8 z4 || %61
[K:Ab][M:4/4][K:treble][Q:1/4=72]"^Agitato" !///-![=DE]4 G4 | !///-![=D=E]4 ^F4 | !///-![FG]4 =A4 | %64
[M:2/4]!ff! !///-![b=a'b']2 [bc'g'a']2 || %65
[K:F#][M:4/4]"^Sinister"[Q:1/4=75]!ff! !>![=Ed]3 !>![Ed] (3:2:6.[=F=e]/.[Fe]/.[Fe]/.[Fe]/.[Fe]/.[Fe]/ !>![Fe]2 | %66
 !>![=Ed]3 !>![Ed] (3:2:6.[=F=e]/.[Fe]/.[Fe]/.[Fe]/.[Fe]/.[Fe]/ !>![Fe]2 | %67
[M:3/4]!<(! !///-![=E=F]3 [=G=A]3!<)! |[M:4/4]!ff! ^^c4 d4 | ^^c3 d/c/ B4 | ^^c4 d2- d/(c/d/c/) | %71
[M:2/4] e4 |[M:4/4][Q:1/4=150]"^Intense"!ff! (fe)(fe) (fe)(fe) | (fe)(fe) (fe)(fe) | %74
 (gf)(gf) (gf)(gf) | (ag)(ag) (ag)(ag) | (ba)(ba) (ba)(ba) | (cA)(cA) (cA)(cA) | %78
 (dB)(dB) (dB)(dB) | (e=c)(ec) (ec)(ec) | (ec)(ec) (ec)(ec) | (fd)(fd) (fd)(fd) | %82
 (ge)(ge) (ge)(ge) | (ge)(ge) (ge)(ge) | [aa']8 |] %85
V:2
!mp! [E,B,]8- | [E,B,]8 | (F,,4 F,,4 | G,,4 A,,4) | ([F,B,D]4 [F,B,D]4 | [G,B,D]4 [A,CE]4) | %6
 [F,B,D]8- |!<(! [F,B,D]8!<)! ||[K:Eb][M:6/8]!f! [A,,A,]!<(![E,E][_F,_F]- [F,F]3!<)! | %9
 [F,,B,,F,]6- | [F,,B,,F,]6 |!<(! !>!_G,,G,,G,, !>!G,,G,,G,,!<)! | !>!_G,,G,,G,, !>!G,,G,,G,, | %13
!<(! [_G,,B,,F,]6!<)! ||[K:Bb][M:2/4]!f! !>![B,,,B,,]/!>![_D,,_D,]/!>![F,,F,]/!>![G,,G,]/ z z | %15
 z/ z3/2 z2 | !>![B,,,B,,]/!>![_D,,_D,]/!>![F,,F,]/!>![G,,G,]/ z z | %17
 z/ z/ z/ z/ !>![B,,,B,,]/!>![_D,,_D,]/!>![F,,F,]/!>![G,,G,]/ | %18
[K:treble] [F,F]/[_A,_A]/[Cc]/[Dd]/ z2 | z2 (6:4:6A,/C/E/G/A/c/ |[M:12/8] z12 | %21
[K:bass]!mp! !>![B,,,B,,]/!>![_D,,_D,]/!>![F,,F,]/!>![G,,G,] z/ z !fermata!z8 | %22
!p! !>![B,,,B,,]/!>![_D,,_D,]/!>![F,,F,]/!>![G,,G,] z/ z !fermata!z8 | %23
!<(! [B,,,B,,]/[_D,,_D,]/[F,,F,]/[G,,G,]/[B,,B,]/[D,D]/ [F,F]/[G,G]/- [G,G]8!<)! | %24
[M:4/4]!mp! !tenuto![B,,,B,,]2 z .[B,,,B,,] ([_D,,_D,].[F,,F,]) z2 | %25
 !tenuto![B,,,B,,]2 z .[B,,,B,,] ([_D,,_D,].[F,,F,]) z2 | %26
 !tenuto![F,,F,]2 z .[F,,F,] ([B,,B,][_D,_D]) z2 | %27
 !tenuto![F,,F,]2 z .[F,,F,] ([B,,B,][_D,_D]) z2 | z8 |[M:3/4] z6 | z6 | z6 | %32
[M:4/4]!mf! (6:4:5[B,,,B,,]/[_D,,_D,]/[F,,F,]/[_A,,_A,]/[B,,B,] z2 z4 | %33
 (6:4:6[_D,,_D,]/[F,,F,]/[_A,,_A,]/[B,,B,]/ z/ z/ z2 z4 | %34
[M:2/4]!<(! (6:4:5[_D,,_D,]/[F,,F,]/[_A,,_A,]/[B,,B,]/[_D,_D]- [D,D]2!<)! | %35
[M:4/4]!mf! !tenuto!.[E,,E,]2 z2 z2 !tenuto!.[E,,E,]2 | !tenuto!.[D,,D,]2 z2 z4 | %37
 !tenuto!.[E,,E,]2 z2 z2 !tenuto!.[E,,E,]2 | !tenuto!.[E,,E,]2 z2 z4 || %39
[K:Eb][M:6/4]!mp! (C,4 A,,4 =B,,4 | G,,12) | (C,4 A,,4 =B,,4 | G,,12) | (C,4 A,,4 B,,4 | %44
 G,,4) _G,,8 | F,,12 | ([_D,,_D,]4 [__B,,,__B,,]4 [_C,,_C,]4 | [A,,,A,,]12) | %48
 ([_D,,_D,]4 [__B,,,__B,,]4 [_C,,_C,]4 | [A,,,A,,]12) | ([_D,,_D,]4 [__B,,,__B,,]4 [__C,,__C,]4 | %51
 [A,,,A,,]4 [G,,,G,,]8-) |!<(! [G,,,G,,]12!<)! ||[K:E]!<(! [C,,,C,,]8 [C,,,C,,]4-!<)! | %54
!<(! [C,,,C,,]4!<(! [C,,,C,,]8!<)!!<)! | [C,,,C,,]8!<(! [C,,,C,,]4-!<)! | %56
 [C,,,C,,]4!<(! [C,,,C,,]8!<)! |!<(! [C,,,C,,]8 [C,,,C,,]4-!<)! | %58
!<(! [C,,,C,,]4!<(! [C,,,C,,]8!<)!!<)! |!<(! [C,,,C,,]8 [C,,,C,,]4-!<)! | %60
!<(! [C,,,C,,]4!<(! [C,,,C,,]8!<)!!<)! || %61
[K:Ab][M:4/4]!ff! z [F,,,F,,]([G,,,G,,][A,,,A,,]) z [G,,,G,,]([A,,,A,,][B,,,B,,]) | %62
 z [=A,,,=A,,]([=B,,,=B,,][C,,C,]) z [B,,,B,,]([C,,C,][=D,,=D,]) | %63
 z [C,,C,]!<(!([=D,,=D,][E,,E,]) z [E,,E,]([F,,F,][G,,G,])!<)! |[M:2/4] z4 || %65
[K:F#][M:4/4][K:treble]!ff! !>![=A,=A]3 !>![A,A] (3:2:6.[B,B]/.[B,B]/.[B,B]/.[B,B]/.[B,B]/.[B,B]/ !>![B,B]2 | %66
 !>![=A,=A]3 !>![A,A] (3:2:6.[B,B]/.[B,B]/.[B,B]/.[B,B]/.[B,B]/.[B,B]/ !>![B,B]2 | %67
[M:3/4][K:bass]!<(! !///![A,,B,,A,B,]6!<)! | %68
[M:4/4][K:bass]!ff! (3!>!C,, z !>!C,, (3!>!C,, z !>!C,, (3!>!C,, z !>!C,, (3!>!C,, z !>!C,, | %69
 (3!>!C,, z !>!C,, (3!>!C,, z !>!C,, (3!>!C,, z !>!C,, (3!>!C,, z !>!C,, | %70
 (3!>!C,,!>(! z !>!C,, (3!>!C,, z !>!C,, (3!>!C,, z !>!C,, (3!>!C,, z !>!C,,!>)! | %71
[M:2/4] [C,,C,]4 |[M:4/4][K:bass]!f! !^![D,D]2!<(! z2 z4!<)! | !^![D,D]2 z2 !^![=E,=E]2 z2 | %74
 !^![D,D]2 z2 z4 | !^![D,D]2 z2 !^![=E,=E]2 z2 | !^![D,D]2 z2 z4 | !^![D,D]2 z2 !^![=E,=E]2 z2 | %78
 !^![D,DE]2 z2 z4 | !^![D,DF]2 z2 !^![=E,=EF]2 z2 | !^![D,DG]2 z2 z4 | %81
 !^![D,DFA]2 z2 !^![=E,=EFA]2 z2 | !^![F,DFA]2 z2 z4 | !^![D,E,FGA]2 z2 !^![=E,F,FGA]2 z2 | %84
[K:bass]!<(! !>!C,,4 !>!C,,!>!C,,>!>!C,,!>!C,,/ z/!<)! |] %85
V:3
 x2 E6 | x8 | x8 | x8 | x8 | x8 | x8 | x8 ||[K:Eb][M:6/8] x6 | x6 | x6 | [=B,,^F,]6- | [B,,F,]6- | %13
 x6 ||[K:Bb][M:2/4] x4 | x4 | x4 | x4 |[K:treble] x4 | x4 |[M:12/8] x12 |[K:bass] x12 | x12 | x12 | %24
[M:4/4] x8 | x8 | x8 | x8 | x8 |[M:3/4] x6 | x6 | x6 |[M:4/4] x8 | x8 |[M:2/4] x4 |[M:4/4] x8 | %36
 x8 | x8 | x8 ||[K:Eb][M:6/4] x12 | x12 | x12 | x12 | x12 | x12 | x12 | x12 | x12 | x12 | x12 | %50
 x12 | x12 | x12 ||[K:E] x12 | x12 | x12 | x12 | x12 | x12 | x12 | x12 ||[K:Ab][M:4/4] x8 | x8 | %63
 x8 |[M:2/4] x4 ||[K:F#][M:4/4][K:treble] x8 | x8 |[M:3/4][K:bass] x6 |[M:4/4][K:bass] x8 | x8 | %70
 x8 |[M:2/4] x4 |[M:4/4][K:bass] x8 | x8 | x8 | x8 | x8 | x8 | x8 | x8 | x8 | x8 | x8 | x8 | %84
[K:bass] x8 |] %85
V:4
 x8 | x8 | x8 | x7 (D/E/) | x8 | x8 | x8 | f8 ||[K:Eb][M:6/8] x6 | x6 | x2 C E G2 | x6 | x6 | x6 || %14
[K:Bb][M:2/4] x4 | x4 | x4 | x4 | x4 | x4 |[M:12/8] x12 | x12 | x12 | x12 |[M:4/4] x8 | x8 | x8 | %27
 x8 | x8 |[M:3/4] x6 | x6 | x6 |[M:4/4] x8 | x8 |[M:2/4] x4 |[M:4/4] x8 | x8 | x8 | x8 || %39
[K:Eb][M:6/4] x12 | x12 | x12 | x12 | x12 | x12 | x12 | x12 | x12 | x12 | x12 | x12 | x12 | x12 || %53
[K:E][K:bass] x12 | x12 | x12 | x12 | x12 | x12 | x12 | x12 ||[K:Ab][M:4/4][K:treble] x8 | x8 | %63
 x8 |[M:2/4] x4 ||[K:F#][M:4/4] x8 | x8 |[M:3/4] x6 |[M:4/4] x8 | !///-![GA]4 [=EF]4 | %70
 !///-![GA]4 [=EF]4 |[M:2/4] !///-![GA]2 [=EF]2 |[M:4/4] x8 | x8 | x8 | x8 | x8 | x8 | x8 | x8 | %80
 x8 | x8 | x8 | x8 | x8 |] %85
V:5
 x8 | x8 | x8 | x8 | x8 | x8 | x8 | x4 b4 ||[K:Eb][M:6/8] x6 | x6 | x6 | x6 | x6 | x6 || %14
[K:Bb][M:2/4] x4 | x4 | x4 | x4 | x4 | x4 |[M:12/8] x12 | x12 | x12 | x12 |[M:4/4] x8 | x8 | x8 | %27
 x8 | x8 |[M:3/4] x6 | x6 | x6 |[M:4/4] x8 | x8 |[M:2/4] x4 |[M:4/4] x8 | x8 | x8 | x8 || %39
[K:Eb][M:6/4] x12 | x12 | x12 | x12 | x12 | x12 | x12 | x12 | x12 | x12 | x12 | x12 | x12 | x12 || %53
[K:E][K:bass] x12 | x12 | x12 | x12 | x12 | x12 | x12 | x12 ||[K:Ab][M:4/4][K:treble] x8 | x8 | %63
 x8 |[M:2/4] x4 ||[K:F#][M:4/4] x8 | x8 |[M:3/4] x6 |[M:4/4] x8 | x8 | x8 |[M:2/4] x4 |[M:4/4] x8 | %73
 x8 | x8 | x8 | x8 | x8 | x8 | x8 | x8 | x8 | x8 | x8 | x8 |] %85

